icons/read-24.svg

<svg width="24" height="24" viewBox="0 0 24 24" fill="none" xmlns="http://www.w3.org/2000/svg">
<path fill-rule="evenodd" clip-rule="evenodd" d="M10.8907 1.76657C11.5788 1.37664 12.4212 1.37664 13.1093 1.76657L22.8593 7.29157C23.5643 7.69107 24 8.4388 24 9.24912V18.75C24 19.9927 22.9926 21 21.75 21H2.25C1.00736 21 0 19.9927 0 18.75V9.24912C0 8.4388 0.435725 7.69107 1.14072 7.29157L10.8907 1.76657ZM12.3698 3.0716C12.1404 2.94163 11.8596 2.94163 11.6302 3.0716L2.31351 8.35108L9.72346 12.5853C11.0671 11.5586 12.9329 11.5586 14.2765 12.5854L21.6865 8.35109L12.3698 3.0716ZM22.5 9.61385L15.5498 13.5854L22.2133 18.821C22.3051 18.8931 22.3754 18.9822 22.4235 19.0804C22.4725 18.9807 22.5 18.8686 22.5 18.75V9.61385ZM8.45015 13.5854L1.5 9.61385V18.75C1.5 18.8686 1.5275 18.9807 1.57647 19.0803C1.62454 18.9822 1.69491 18.893 1.7866 18.821L8.45015 13.5854ZM20.6497 19.5H3.35027L10.6099 13.7961C11.4257 13.155 12.5742 13.155 13.3901 13.7961L20.6497 19.5Z" fill="#24292F"/>
</svg>

<svg xmlns="http://www.w3.org/2000/svg" width="24" height="24" viewBox="0 0 24 24"><path fill-rule="evenodd" d="M10.89 1.767a2.25 2.25 0 012.22 0l9.75 5.525A2.25 2.25 0 0124 9.249v9.501A2.25 2.25 0 0121.75 21H2.25A2.25 2.25 0 010 18.75v-9.5a2.25 2.25 0 011.14-1.958l9.75-5.525zm1.48 1.305a.75.75 0 00-.74 0l-9.316 5.28 7.41 4.233a3.75 3.75 0 014.553 0l7.41-4.234-9.317-5.28zM22.5 9.614l-6.95 3.971 6.663 5.236a.747.747 0 01.21.26.747.747 0 00.077-.331V9.614zM8.45 13.585L1.5 9.614v9.136c0 .119.028.23.076.33a.747.747 0 01.21-.259l6.664-5.236zm12.2 5.915H3.35l7.26-5.704a2.25 2.25 0 012.78 0l7.26 5.704z"/></svg>
